X:1
T:Title
%%score ( 1 2 3 ) 4
L:1/8
Q:1/4=110
M:4/4
K:C
V:1 treble nm="Strings 1, Treble"
V:2 treble 
V:3 treble 
V:4 bass nm="Strings 1, Bass"
V:1
 z4 z2 [EG][EG] | [Ge]2 [Fd]2 [Ec]2 [EG][EG] | [FA]2 [Fc]2 [EG]2 [EG][EG] | %3
w: 1.~There's~ a~|sun ny~ side~ where~ no~|ills~ be tide,~ On~ the~|
 [Ec]2 [Gc]2 [FB]2 [Ec]2 | d6 z2 | [Ge]2 [Fd]2 [Ec]2 [EG][EG] | [FA]2 [Fc]2 [EG]2 [EG][EG] | %7
w: road~ that~ we~ must~|go;~|pleas ant~ vales,~ ver dant~|hills~ and~ dales,~ Where~ sweet~|
 [Ec]2 [Ac]2 [Ge]2 [Fd]2 | [Ec]6 [CE][DF] | z c3 z c3 | c2 B2 z4 | z f3 z B3 | A2 G2 z4 | %13
w: flow ers~ ev er~|grow.~ * *|||||
 [Ge]e-[Ge-][Ge] [Ec]e-[Ge-][Ge] | d2 d2 z4 | z e3 z4 | [Ec]6 z2 |] %17
w: ||||
V:2
 x8 | x8 | x8 | x8 | G4 F2 [EG][EG] | x8 | x8 | x8 | x8 | [EG]EEE [Ed]EEE | FFFF [FB]2 G[GA] | %11
w: ||||* * * are~|||||||
 [GB]GGG [FA]GGG | FFEE [EG]2 [Gc][Gd] | z G z2 z G z2 | FFFF [FA]2 [GB][FA] | %15
w: ||||
 .[EG]2 G<G [Fd]2 [Fd]2 | x8 |] %17
w: ||
V:3
 x8 | x8 | x8 | x8 | x8 | x8 | x8 | x8 | x8 | x8 | x8 | x8 | x8 | x8 | x8 | z/ G3/2 z2 z4 | x8 |] %17
V:4
 z4 z2 [C,C][C,C] | [C,C]2 [C,G,]2 [C,G,]2 [C,C][C,C] | [F,C]2 [A,C]2 C2 [C,C][C,C] | %3
 [C,G,]2 [E,G,]2 [D,G,]2 [C,G,]2 | [G,,G,B,]6 [C,C][C,C] | [C,C]2 [C,G,]2 [C,G,]2 [C,C][C,C] | %6
 [F,C]2[K:treble] [A,C]2 C2 CC | [A,C]2[K:bass] [E,C]2 [G,C]2 G,2 | [C,G,]6 [C,G,][C,G,] | %9
 [C,G,][C,G,][C,G,][C,G,] [C,G,][C,G,][C,G,][C,G,] | [D,G,][D,G,][D,G,][D,G,] [G,D]2 [G,B,][G,C] | %11
 [G,D][G,D][G,D][G,D] [G,D][G,D][G,D][G,D] | [C,C][C,C][C,C][C,C] [C,C]2 [E,C][G,B,] | %13
 CCCC [C,G,][C,C][C,C][C,C] | [F,A,][F,A,][F,A,][F,A,] [F,C]2 [F,C][F,C] | %15
 [G,C]<[G,C] [G,C]<[G,C] [G,B,]2 [G,,G,]2 | [C,G,]6 z2 |] %17

